assets/images/ico_folder.svg

<svg width="37" height="32" viewBox="0 0 37 32" fill="none" xmlns="http://www.w3.org/2000/svg">
<path d="M34.3626 4.58333C34.3626 3.475 33.5861 2.66667 32.4791 2.66667H16.4285C16.1972 2.66667 16.0733 2.61667 15.9246 2.46667L14.0659 0.591667L14.0494 0.575C13.6446 0.191667 13.3142 0 12.6203 0H4.68167C3.54168 0 2.64126 0.858333 2.64126 1.91667V8H34.3626V4.58333ZM2.64126 10.3333H1.95562C0.898241 10.3333 -0.134354 10.7583 0.01434 12.3583C0.163034 13.9583 1.95562 29.9167 1.95562 29.9167C2.17866 31.4 2.92213 32 4.02081 32H33.14C34.1891 32 34.8747 31.35 35.04 29.9167C35.04 29.9167 36.8738 14.5083 36.9895 12.7917C37.1051 11.0833 36.2543 10.3333 35.04 10.3333H2.64126Z" fill="#D3C9BE"/>
</svg>

<svg width="37" height="32" fill="none" xmlns="http://www.w3.org/2000/svg"><path d="M34.363 4.583c0-1.108-.777-1.916-1.884-1.916H16.43c-.232 0-.356-.05-.504-.2L14.065.592 14.05.575C13.645.192 13.314 0 12.62 0H4.682c-1.14 0-2.04.858-2.04 1.917V8h31.72V4.583zM2.64 10.333h-.685c-1.058 0-2.09.425-1.942 2.025.149 1.6 1.942 17.559 1.942 17.559C2.179 31.4 2.922 32 4.02 32h29.12c1.05 0 1.735-.65 1.9-2.083 0 0 1.834-15.409 1.95-17.125.115-1.709-.736-2.459-1.95-2.459H2.641z" fill="#D3C9BE"/></svg>
